X: 1165
T: An Chearc Ar Fad Is An Anairthe
R: slide
M: 12/8
K: Dmajor
|f2e|:d2A dBA F2D D3|EFE E2F G2A F2A|
d2A dBA F2D D2F|1 EDE F/A/FE D3 D2B/c/:|2 EDE F/A/FE D3 D2B/B/||
|:A3 ABd f3 f2d|cde B2c d2B BAF|
A3 ABd f3 f2d|1 cde B2c d3 dcB:|2 cde B2c dfe dBc|

